!!!COM: Music21
!!!OTL: waltz_Gentle-Maiden--The
!!!OMV: waltz_Gentle-Maiden--The
**kern
*clefG2
*k[f#]
*G:
*M3/4
=1
8f#
=||
8.gL
16aJk
8gL
8f#J
8eL
8dJ
=
4.dd
8ee
8ff#L
8ggJ
=
8.ddL
16ccJk
8b
4a
8g
=
4.e
4e
8f#
=||
8.gL
16aJk
8gL
8f#J
8eL
8dJ
=
4.dd
8ee
8ff#L
8ggJ
!!linebreak:original
=
8.ddL
16ccJk
8b
4a
8g
=
4.g
4g
8dd
=||
8ddL
8eeJ
8ff#
4gg
8gg
=
4.gg
8gg
8ff#L
8eeJ
=
8.ddL
16ccJk
8b
4a
8g
=
4.e
4e
8f#
=
8.gL
16aJk
8gL
8f#J
8eL
8dJ
!!linebreak:original
=
4.dd
8ee
8ff#L
8ggJ
=
8.ddL
16ccJk
8b
4a
8g
=
4.g
4g
8ryy
=||
*-
